icons/mini/backward.svg

<svg width="20" height="20" viewBox="0 0 20 20" fill="none" xmlns="http://www.w3.org/2000/svg">
<path d="M7.71176 4.81895C8.71109 4.20172 10 4.92057 10 6.09515V9.06794C10.1044 8.93679 10.234 8.81991 10.389 8.72419L16.7118 4.81895C17.7111 4.20172 19 4.92057 19 6.09515V13.9056C19 15.0802 17.7111 15.7991 16.7118 15.1818L10.389 11.2766C10.234 11.1809 10.1044 11.064 10 10.9328V13.9056C10 15.0802 8.7111 15.7991 7.71176 15.1818L1.38899 11.2766C0.439979 10.6904 0.439975 9.31035 1.38899 8.72419L7.71176 4.81895Z" fill="#0F172A"/>
</svg>

<svg xmlns="http://www.w3.org/2000/svg" viewBox="0 0 20 20" fill="currentColor" aria-hidden="true">
  <path d="M7.712 4.819A1.5 1.5 0 0110 6.095v2.973c.104-.131.234-.248.389-.344l6.323-3.905A1.5 1.5 0 0119 6.095v7.81a1.5 1.5 0 01-2.288 1.277l-6.323-3.905a1.505 1.505 0 01-.389-.344v2.973a1.5 1.5 0 01-2.288 1.276l-6.323-3.905a1.5 1.5 0 010-2.553L7.712 4.82z"/>
</svg>
